X: 21522
T: Kieran's
R: jig
M: 6/8
K: Gminor
|:gfd B2d|cAG FDF|G2A BDB|c3 cdf|
gfd B2d|cAG FDF|GAB edB|cAF G3:|
|:BGA Bcd|c3 cdc|GAB GAB|edB cAF|
D=EF GAB|cgf cdB|GAB edB|cAF G3:|

